!!!COM: Bach, Johann Sebastian
!!!OTL: Herr Christ, der ein'ge Gott's-Sohn
!!!ONM: No. 101
!!!OCL: Erk
!!!YOE: Riemenschneider, Albert
!!!OPR: 371 Harmonized Chorales and 69 Chorale Melodies with Figured Bass
!!!OPT: Bach Chorale Harmonizations
**kern	**kern	**kern	**kern
! bass	! tenor	! alto	! soprano
*M4/4	*M4/4	*M4/4	*M4/4
*B-:	*B-:	*B-:	*B-:
4B-	4d	4f	4b-
=1	=1	=1	=1
4E-	4e-	8g	8b-
.	.	8a	8cc
4BB-	4f	4b-	4dd
4F	8f	4a	4cc
.	8e-	.	.
4G	4d	4g	4b-
=2	=2	=2	=2
4C	4e-	4g	2a
4D	8d	4f#	.
.	8c	.	.
4E-;	4B-;	4g;	4g;
4G	4B-	4g	4dd
=3	=3	=3	=3
4C	4B-	4g	4ee-
8F	4A	4fn	4cc
8E-	.	.	.
8D	4B-	4f	4dd
8E-	.	.	.
4F	8B-	4f	4cc
.	8A	.	.
=4	=4	=4	=4
2.BB-;	2.d;	2.f;	2.b-;
!! Repeat from the beginning.
4B-	4d	4f	4b-
=1	=1	=1	=1
4E-	4e-	8g	8b-
.	.	8a	8cc
4BB-	4f	4b-	4dd
4F	8f	4a	4cc
.	8e-	.	.
4G	4d	4g	4b-
=2	=2	=2	=2
4C	4e-	4g	2a
4D	8d	4f#	.
.	8c	.	.
4E-;	4B-;	4g;	4g;
4G	4B-	4g	4dd
=3	=3	=3	=3
4C	4B-	4g	4ee-
8F	4A	4fn	4cc
8E-	.	.	.
8D	4B-	4f	4dd
8E-	.	.	.
4F	8B-	4f	4cc
.	8A	.	.
=4	=4	=4	=4
2.BB-;	2.d;	2.f;	2.b-;
!! Continuing.
4BB-	8d	4f	8b-
.	8e-	.	8cc
=5	=5	=5	=5
8B-	4f	4b-	4dd
8A	.	.	.
8G	4g	8b-	4dd
8F	.	8a	.
8E-	8g	4g	4ee-
8D	8f	.	.
8C	8e-	4g	4ee-
8BB-	8d	.	.
=6	=6	=6	=6
4AA	4c	2f	4ff
4BB-	4B-	.	8ee-
.	.	.	8dd
4FF;	4A;	4f;	4cc;
4AA	4c	4f	4ff
=7	=7	=7	=7
8BB-	4B-	4f	4dd
8C	.	.	.
8D	4B-	4f	4dd
8E-	.	.	.
8F	4A	8f	4cc
8F#	.	8e-	.
8G	8A	4d	4b-
8BB-	8G	.	.
=8	=8	=8	=8
8C	4G	8e-	2a
8AA	.	8c	.
4D	4F#	4d	.
4GG;	4B-;	4d;	4g;
4G	4Bn	4g	4dd
=9	=9	=9	=9
8c	8c	4g	4ee-
8B-	8d	.	.
8A	8e-	4f	4cc
8F	8A	.	.
8B-	4B-	8f	4dd
8E-	.	8g	.
8F	8f	4a	4cc
8FF	8e-	.	.
=10	=10	=10	=10
2.BB-	2.d;	2.f;	2.b-;
==	==	==	==
*-	*-	*-	*-
!!!CDT: 1685/3//-1750/7/28
!!!OCY: Deutschland
!!!AGN: chorale
!!!AST: Baroque
!!!AIN: vox
!!!YOY: 1941
!!!PPP: New York; London
!!!PPR: G. Schirmer
!!!ENC: David Huron
!!!EED: David Huron
!!!YEN: United States of America
!!!YER: 1992
!!!YEC: Copyright 1992 David Huron
!!!YEM: Rights to all derivative electronic formats reserved.
!!!YER: March 20, 1996
!!!AMT: simple quadruple
!!!EEV: 1.1
